src/assets/icons/letters,simple,serif-p.svg

<svg width="48" height="48" viewBox="0 0 48 48" fill="none" xmlns="http://www.w3.org/2000/svg">
<rect opacity="0.2" x="5" y="5" width="38" height="38" rx="4" fill="black"/>
<path d="M34.248 19.32C34.248 21.48 33.408 23.13 31.728 24.27C30.048 25.39 27.608 25.95 24.408 25.95H21.858V31.23C21.858 31.99 21.908 32.61 22.008 33.09C22.108 33.55 22.318 33.91 22.638 34.17C22.958 34.43 23.398 34.6 23.958 34.68C24.518 34.76 25.268 34.8 26.208 34.8V36H14.298V34.8C14.958 34.78 15.498 34.72 15.918 34.62C16.338 34.52 16.658 34.35 16.878 34.11C17.098 33.87 17.248 33.53 17.328 33.09C17.408 32.65 17.448 32.08 17.448 31.38V17.52C17.448 16.82 17.408 16.26 17.328 15.84C17.268 15.4 17.138 15.06 16.938 14.82C16.738 14.56 16.448 14.39 16.068 14.31C15.708 14.21 15.228 14.14 14.628 14.1V12.9H25.008C28.048 12.9 30.348 13.44 31.908 14.52C33.468 15.6 34.248 17.2 34.248 19.32ZM21.858 24.15H23.808C25.748 24.15 27.168 23.76 28.068 22.98C28.968 22.2 29.418 20.97 29.418 19.29C29.418 17.79 29.038 16.63 28.278 15.81C27.518 14.99 26.328 14.58 24.708 14.58H22.398C22.038 14.58 21.858 14.75 21.858 15.09V24.15Z" fill="black"/>
</svg>

<svg xmlns="http://www.w3.org/2000/svg" width="48" height="48" fill="none" viewBox="0 0 48 48">
  <rect width="38" height="38" x="5" y="5" fill="#000" opacity=".2" rx="4"/>
  <path fill="#000" d="M34.248 19.32c0 2.16-.84 3.81-2.52 4.95-1.68 1.12-4.12 1.68-7.32 1.68h-2.55v5.28c0 .76.05 1.38.15 1.86.1.46.31.82.63 1.08.32.26.76.43 1.32.51.56.08 1.31.12 2.25.12V36h-11.91v-1.2c.66-.02 1.2-.08 1.62-.18.42-.1.74-.27.96-.51.22-.24.37-.58.45-1.02.08-.44.12-1.01.12-1.71V17.52c0-.7-.04-1.26-.12-1.68-.06-.44-.19-.78-.39-1.02-.2-.26-.49-.43-.87-.51-.36-.1-.84-.17-1.44-.21v-1.2h10.38c3.04 0 5.34.54 6.9 1.62 1.56 1.08 2.34 2.68 2.34 4.8zm-12.39 4.83h1.95c1.94 0 3.36-.39 4.26-1.17.9-.78 1.35-2.01 1.35-3.69 0-1.5-.38-2.66-1.14-3.48-.76-.82-1.95-1.23-3.57-1.23h-2.31c-.36 0-.54.17-.54.51v9.06z"/>
</svg>
